X: 550
%
U:~=!turn!
T: Pretty Pegg
C:
O:Scotland
B:Keith Norman MacDonald : "The Skye collection of the best reels & strathspeys extant" : 1887
Z:Ralph Palmer
R:Reel
M:C
L:1/8
K:D
A | ~d2 fd AFDF | ~d2 fd (e/f/g) Tf>e | ~d2 fd AFDF | G>EF>D CEE :| A | (F/E/D) AD BDAD | (G/F/E) (F/E/D) CETE>G |
(F/E/D) AD BDAD | (G/F/E) (F/E/D) A,DDA | (F/E/D) dD cDBD | AD (F/E/D) CEEG | FAdf ecdB | AFGE D3 |]


